icons/global/user-settings/hotspot-options.svg

<svg width="24" height="24" viewBox="0 0 24 24" fill="none" xmlns="http://www.w3.org/2000/svg">
<path d="M11.728 0.880033C11.168 1.26403 11.2 1.68003 11.856 3.04003C13.344 6.14403 13.344 7.95203 11.808 9.16803C10.944 9.87203 10.016 9.92003 8.96 9.34403C8.496 9.08803 7.872 8.56003 7.552 8.16003C6.8 7.23203 6.576 7.04003 6.144 7.04003C5.68 7.04003 5.088 7.76003 4.384 9.16803C2.432 13.04 2.928 17.168 5.68 19.92C9.008 23.248 14.4 23.328 17.696 20.08C18.832 18.944 19.504 17.808 20.032 16.16C20.56 14.464 20.56 11.232 20.032 9.36003C18.944 5.52003 16.64 2.64003 13.424 1.12003C12.24 0.560033 12.192 0.560033 11.728 0.880033ZM16.048 12.432C16.496 13.44 16.544 15.952 16.112 17.312C15.36 19.76 13.088 21.008 10.688 20.288C9.84 20.032 8.736 19.04 8.416 18.208C7.648 16.32 8.448 15.168 9.968 15.952C10.704 16.336 12.096 16.304 12.88 15.888C14.144 15.216 15.232 13.712 15.456 12.336C15.52 11.968 15.584 11.68 15.632 11.68C15.664 11.68 15.856 12.016 16.048 12.432Z" fill="black"/>
</svg>

<svg xmlns="http://www.w3.org/2000/svg" width="24" height="24" fill="none">
  <path fill="#000" d="M11.728.88c-.56.384-.528.8.128 2.16 1.488 3.104 1.488 4.912-.048 6.128-.864.704-1.792.752-2.848.176A5.598 5.598 0 0 1 7.552 8.16c-.752-.928-.976-1.12-1.408-1.12-.464 0-1.056.72-1.76 2.128-1.952 3.872-1.456 8 1.296 10.752 3.328 3.328 8.72 3.408 12.016.16 1.136-1.136 1.808-2.272 2.336-3.92.528-1.696.528-4.928 0-6.8-1.088-3.84-3.392-6.72-6.608-8.24C12.24.56 12.192.56 11.728.88Zm4.32 11.552c.448 1.008.496 3.52.064 4.88-.752 2.448-3.024 3.696-5.424 2.976-.848-.256-1.952-1.248-2.272-2.08-.768-1.888.032-3.04 1.552-2.256.736.384 2.128.352 2.912-.064 1.264-.672 2.352-2.176 2.576-3.552.064-.368.128-.656.176-.656.032 0 .224.336.416.752Z"/>
</svg>
